cssgg/usb-c.svg

<svg
  width="24"
  height="24"
  viewBox="0 0 24 24"
  fill="none"
  xmlns="http://www.w3.org/2000/svg"
>
  <path
    d="M8 11C7.44772 11 7 11.4477 7 12C7 12.5523 7.44772 13 8 13H16C16.5523 13 17 12.5523 17 12C17 11.4477 16.5523 11 16 11H8Z"
    fill="currentColor"
  />
  <path
    fill-rule="evenodd"
    clip-rule="evenodd"
    d="M3 12C3 9.23858 5.23858 7 8 7H16C18.7614 7 21 9.23858 21 12C21 14.7614 18.7614 17 16 17H8C5.23858 17 3 14.7614 3 12ZM8 9H16C17.6569 9 19 10.3431 19 12C19 13.6569 17.6569 15 16 15H8C6.34315 15 5 13.6569 5 12C5 10.3431 6.34315 9 8 9Z"
    fill="currentColor"
  />
</svg>

<svg viewBox="0 0 24 24" xmlns="http://www.w3.org/2000/svg"><g><path d="M8 11c-.56 0-1 .44-1 1 0 .55.44 1 1 1h8c.55 0 1-.45 1-1 0-.56-.45-1-1-1H8Z"/><path fill-rule="evenodd" d="M3 12c0-2.77 2.23-5 5-5h8c2.76 0 5 2.23 5 5 0 2.76-2.24 5-5 5H8c-2.77 0-5-2.24-5-5Zm5-3h8c1.65 0 3 1.34 3 3 0 1.65-1.35 3-3 3H8c-1.66 0-3-1.35-3-3 0-1.66 1.34-3 3-3Z"/></g></svg>
